icon-themes/colibre_svg/svx/res/marker-rectplus7-6.svg

<svg height="7" viewBox="0 0 7 7" width="7" xmlns="http://www.w3.org/2000/svg"><path d="m0 .00002v7h7v-7zm3 1h1v1 1h1 1v1h-1-1v1 1h-1v-1-1h-1-1v-1h1 1v-1z" fill="#808080"/><path d="m3 1.00002v2h-2v1h2v2h1v-2h2v-1h-2v-2z" fill="#fff"/></svg>

<svg viewBox="0 0 7 7" xmlns="http://www.w3.org/2000/svg">
  <path
     style="fill:#808080;opacity:0.66"
     d="M 0 0 L 0 7 L 7 7 L 7 0 L 0 0 z M 3 1 L 4 1 L 4 2 L 4 3 L 5 3 L 6 3 L 6 4 L 5 4 L 4 4 L 4 5 L 4 6 L 3 6 L 3 5 L 3 4 L 2 4 L 1 4 L 1 3 L 2 3 L 3 3 L 3 2 L 3 1 z "
     />
  <path
     style="fill:#fff;opacity:0.9"
     d="m3 1v2h-2v1h2v2h1v-2h2v-1h-2v-2z"
     />
</svg>
